X: 615
T: Your Mother's Fair Pet   #2
R: reel
%S: s:2 b:11(5+6)
B: Francis O'Neill: "The Dance Music of Ireland" (1907) #615
Z: Frank Nordberg - http://www.musicaviva.com
F: http://www.musicaviva.com/abc/tunes/ireland/oneill-1001/0615/oneill-1001-0615-1.abc
N: Compacted via added repeat with multiple endings [JC]
%m: Tn = (3n/o/n/
M: C|
L: 1/8
K: D
"^A"|: (ed) | cAAB cded | cAGE TEDDB | cBAB cdeg |[1 fdec dfed :|[2 fdec d2 |]
"^B"|: de | f2fa e2eg | fded cAAg |[1 f2fa e2eg | fdec d2 :|[2 f3f eaag | fdec d2 |]
